!!!OTL@@DE: Der unerbittliche Hauptmann
!!!ONB: Volksweise
!!!ODT: 1828
!!!OMD: M&auml;ssig langsam
!!!ONB: Volkslied des 18. Jahrhunderts
!!!OCL: Erk, Ludwig
!!!GCO: Deutscher Liederschatz, Band 1
**kern	**kern	**kern
*staff3	*staff2	*staff1
*Ipiano	*Ipiano	*Ivox
*clefF4	*clefG2	*clefG2
*>[A,A,B]	*>[A,A,B]	*>[A,A,B]
*>A	*>A	*>A
*k[b-]	*k[b-]	*k[b-]
*F:	*F:	*F:
*M2/4	*M2/4	*M2/4
*MM72	*MM72	*MM72
8r	8c/	8c/
=1	=1	=1
(8FF/L	4A/ (4f/	4f/
8C/	.	.
8F/J)	8c/ 8a/L)	8a/
8r	8A/ 8f/J	8f/
=2	=2	=2
*	*^	*
(8c\L	(4g/	4.e\	4g/
8G\	.	.	.
8C\J)	8b-/L)	.	8b-\
8r	8g/J	8e\	8g/
=3	=3	=3	=3
*^	*	*	*
4c/	8F\L	8a/L	4f\	8a/
.	8A\J	8cc/J	.	8cc\
4c/	8G\L	8b-/L	8e\	8b-\
.	8F\J	8a/J	8f\	8a/
*v	*v	*	*	*
*	*v	*v	*
=4	=4	=4
8C/L	4c/ 4e/ 4g/	4g/
(8C/	.	.
8CC/J)	8r	8r
=:|!	=:|!	=:|!
*>B	*>B	*>B
8F\	8f/ 8a/	8a/
=5	=5	=5
*^	*^	*
8G/L	4.C\	8b-/L	4.e\	8b-\
8B-/	.	8dd/	.	8dd\
8B-/	.	8dd/	.	8dd\
8G/J	8C\	8b-/J	8e\	8b-\
=6	=6	=6	=6	=6
4.A/	4.F\	8a/L	4.f\	(8a\L
.	.	8cc/	.	8cc\J)
.	.	8a/	.	8a/
*	*	*v	*v	*
8A/	8F\	8f/J	8f/
=7	=7	=7	=7
*	*	*^	*
8C/L	4.C\	(8g/L	4e\	8g/
8G/	.	8b-/)	.	8b-/
8c/	.	8g/	8e\L	8g/
8B-/J	8C\	8e/J	8c\J	8e/
*v	*v	*	*	*
=8	=8	=8	=8
4.F\ 4.A\	(8f/L	4.c\	(8f/L
.	8a/	.	8a/
.	8cc/J)	.	8cc/J)
8F#\ 8A\	8a/	8d\	8a/
=9	=9	=9	=9
8GG\ 8G\L	8b-/L	4.d\ 4.g\	8b-\
8B-\	8dd/	.	8dd\
8B-\	8dd/	.	8dd\
8C\ 8G\J	8b-/J	8c\ 8e\	8b-\
=10	=10	=10	=10
8FF\ 8F\L	(8a/L	4.c\ 4.fn\	(8a\L
8A\	8cc/)	.	8cc\J)
8F\	8a/	.	8a/
8AA\J	8f/J	8c\	8f/
=11	=11	=11	=11
4BB-/	(8g/L	4d\	8g/
.	8b-/J)	.	8b-/
*	*v	*v	*
8BB-/L	8d/ 8g/L	8g/
8CC/ 8C/J	8G/ 8B-/ 8c/ 8e/J	8e/
=12	=12	=12
4.FF/ 4.C/	4.A/ 4.c/ 4.f/	4f/
.	.	8r
==	==	==
*-	*-	*-
!!!ENC: Craig Stuart Sapp
!!!END: 2004/06/27/
!!!EFL: 156/651
